public/assets/instagram.svg

<svg width="100" height="100" viewBox="0 0 100 100" fill="none" xmlns="http://www.w3.org/2000/svg">
<path d="M59.5703 50C59.5703 55.2856 55.2856 59.5703 50 59.5703C44.7144 59.5703 40.4297 55.2856 40.4297 50C40.4297 44.7144 44.7144 40.4297 50 40.4297C55.2856 40.4297 59.5703 44.7144 59.5703 50Z" fill="#F7D59C"/>
<path d="M72.3816 33.0672C71.9215 31.8205 71.1876 30.6921 70.2339 29.7659C69.3077 28.8123 68.1801 28.0783 66.9327 27.6183C65.921 27.2253 64.4012 26.7577 61.602 26.6302C58.5739 26.4922 57.666 26.4624 50 26.4624C42.3332 26.4624 41.4253 26.4914 38.398 26.6295C35.5988 26.7577 34.0782 27.2253 33.0673 27.6183C31.8199 28.0783 30.6915 28.8123 29.7661 29.7659C28.8124 30.6921 28.0785 31.8198 27.6176 33.0672C27.2247 34.0788 26.757 35.5994 26.6296 38.3986C26.4915 41.4259 26.4618 42.3338 26.4618 50.0006C26.4618 57.6666 26.4915 58.5745 26.6296 61.6026C26.757 64.4019 27.2247 65.9216 27.6176 66.9333C28.0785 68.1807 28.8116 69.3083 29.7653 70.2345C30.6915 71.1882 31.8192 71.9221 33.0666 72.3822C34.0782 72.7759 35.5988 73.2436 38.398 73.371C41.4253 73.5091 42.3325 73.5381 49.9992 73.5381C57.6668 73.5381 58.5747 73.5091 61.6013 73.371C64.4005 73.2436 65.921 72.7759 66.9327 72.3822C69.4366 71.4163 71.4157 69.4373 72.3816 66.9333C72.7745 65.9216 73.2422 64.4019 73.3704 61.6026C73.5085 58.5745 73.5374 57.6666 73.5374 50.0006C73.5374 42.3338 73.5085 41.4259 73.3704 38.3986C73.243 35.5994 72.7753 34.0788 72.3816 33.0672ZM50 64.7429C41.8571 64.7429 35.2562 58.1427 35.2562 49.9998C35.2562 41.857 41.8571 35.2568 50 35.2568C58.1421 35.2568 64.743 41.857 64.743 49.9998C64.743 58.1427 58.1421 64.7429 50 64.7429ZM65.3259 38.1194C63.4232 38.1194 61.8805 36.5767 61.8805 34.6739C61.8805 32.7711 63.4232 31.2285 65.3259 31.2285C67.2287 31.2285 68.7714 32.7711 68.7714 34.6739C68.7706 36.5767 67.2287 38.1194 65.3259 38.1194Z" fill="#F7D59C"/>
<path d="M50 0C22.39 0 0 22.39 0 50C0 77.61 22.39 100 50 100C77.61 100 100 77.61 100 50C100 22.39 77.61 0 50 0ZM78.5378 61.837C78.3989 64.8933 77.9129 66.98 77.2034 68.8065C75.7118 72.6631 72.6631 75.7118 68.8065 77.2034C66.9807 77.9129 64.8933 78.3981 61.8378 78.5378C58.7761 78.6774 57.798 78.7109 50.0008 78.7109C42.2028 78.7109 41.2254 78.6774 38.163 78.5378C35.1074 78.3981 33.02 77.9129 31.1943 77.2034C29.2778 76.4824 27.5429 75.3525 26.1086 73.8914C24.6483 72.4579 23.5184 70.7222 22.7974 68.8065C22.0879 66.9807 21.6019 64.8933 21.463 61.8378C21.3219 58.7753 21.2891 57.7972 21.2891 50C21.2891 42.2028 21.3219 41.2247 21.4622 38.163C21.6011 35.1067 22.0863 33.02 22.7959 31.1935C23.5168 29.2778 24.6475 27.5421 26.1086 26.1086C27.5421 24.6475 29.2778 23.5176 31.1935 22.7966C33.02 22.0871 35.1067 21.6019 38.163 21.4622C41.2247 21.3226 42.2028 21.2891 50 21.2891C57.7972 21.2891 58.7753 21.3226 61.837 21.463C64.8933 21.6019 66.98 22.0871 68.8065 22.7959C70.7222 23.5168 72.4579 24.6475 73.8922 26.1086C75.3525 27.5429 76.4832 29.2778 77.2034 31.1935C77.9137 33.02 78.3989 35.1067 78.5385 38.163C78.6781 41.2247 78.7109 42.2028 78.7109 50C78.7109 57.7972 78.6781 58.7753 78.5378 61.837Z" fill="#F7D59C"/>
</svg>

<svg width="100" height="100" fill="none" xmlns="http://www.w3.org/2000/svg"><path d="M59.57 50A9.57 9.57 0 0 1 50 59.57 9.57 9.57 0 0 1 40.43 50 9.57 9.57 0 0 1 50 40.43 9.57 9.57 0 0 1 59.57 50Z" fill="#F7D59C"/><path d="M72.382 33.067a8.896 8.896 0 0 0-2.148-3.301 8.89 8.89 0 0 0-3.301-2.148c-1.012-.393-2.532-.86-5.331-.988-3.028-.138-3.936-.168-11.602-.168-7.667 0-8.575.03-11.602.168-2.8.128-4.32.595-5.33.988a8.883 8.883 0 0 0-3.302 2.148 8.902 8.902 0 0 0-2.148 3.301c-.393 1.012-.861 2.532-.988 5.332-.139 3.027-.168 3.935-.168 11.602 0 7.666.03 8.574.168 11.602.127 2.799.595 4.319.988 5.33a8.9 8.9 0 0 0 2.147 3.301 8.89 8.89 0 0 0 3.302 2.148c1.011.394 2.532.862 5.331.989 3.027.138 3.934.167 11.601.167 7.668 0 8.576-.029 11.602-.167 2.8-.127 4.32-.595 5.332-.989a9.508 9.508 0 0 0 5.449-5.449c.392-1.011.86-2.531.988-5.33.138-3.029.167-3.936.167-11.602 0-7.667-.029-8.575-.167-11.602-.127-2.8-.595-4.32-.988-5.332ZM50 64.743c-8.143 0-14.744-6.6-14.744-14.743S41.857 35.257 50 35.257c8.142 0 14.743 6.6 14.743 14.743S58.143 64.743 50 64.743Zm15.326-26.624a3.446 3.446 0 1 1 0-6.89 3.446 3.446 0 0 1 0 6.89Z" fill="#F7D59C"/><path d="M50 0C22.39 0 0 22.39 0 50s22.39 50 50 50 50-22.39 50-50S77.61 0 50 0Zm28.538 61.837c-.14 3.056-.625 5.143-1.335 6.97a14.681 14.681 0 0 1-8.397 8.396c-1.825.71-3.913 1.195-6.968 1.335-3.062.14-4.04.173-11.837.173-7.798 0-8.776-.034-11.838-.173-3.056-.14-5.143-.625-6.969-1.335a14.065 14.065 0 0 1-5.085-3.312 14.07 14.07 0 0 1-3.312-5.085c-.71-1.825-1.195-3.913-1.334-6.968-.141-3.063-.174-4.04-.174-11.838 0-7.797.033-8.775.173-11.837.14-3.056.624-5.143 1.334-6.97a14.063 14.063 0 0 1 3.313-5.084 14.062 14.062 0 0 1 5.084-3.312c1.827-.71 3.914-1.195 6.97-1.335 3.062-.14 4.04-.173 11.837-.173s8.775.034 11.837.174c3.056.139 5.143.624 6.97 1.333a14.072 14.072 0 0 1 5.085 3.313 14.067 14.067 0 0 1 3.311 5.084c.71 1.827 1.196 3.914 1.335 6.97.14 3.062.173 4.04.173 11.837s-.033 8.775-.173 11.837Z" fill="#F7D59C"/></svg>
